actions/48/system-shutdown.svg

<?xml version="1.0" encoding="UTF-8" standalone="no"?>
<svg
   xmlns:dc="http://purl.org/dc/elements/1.1/"
   xmlns:cc="http://creativecommons.org/ns#"
   xmlns:rdf="http://www.w3.org/1999/02/22-rdf-syntax-ns#"
   xmlns:svg="http://www.w3.org/2000/svg"
   xmlns="http://www.w3.org/2000/svg"
   xmlns:xlink="http://www.w3.org/1999/xlink"
   version="1.1"
   width="48"
   height="48"
   id="svg4102">
  <defs
     id="defs4104">
    <linearGradient
       x1="71.204407"
       y1="6.2375584"
       x2="71.204407"
       y2="44.340794"
       id="linearGradient3178"
       xlink:href="#linearGradient4011"
       gradientUnits="userSpaceOnUse"
       gradientTransform="matrix(1.054054,0,0,1.054054,-51.611006,-1.727899)" />
    <linearGradient
       id="linearGradient4011">
      <stop
         id="stop4013"
         style="stop-color:#ffffff;stop-opacity:1"
         offset="0" />
      <stop
         id="stop4015"
         style="stop-color:#ffffff;stop-opacity:0.23529412"
         offset="0.507761" />
      <stop
         id="stop4017"
         style="stop-color:#ffffff;stop-opacity:0.15686275"
         offset="0.83456558" />
      <stop
         id="stop4019"
         style="stop-color:#ffffff;stop-opacity:0.39215687"
         offset="1" />
    </linearGradient>
    <linearGradient
       x1="38.976662"
       y1="59.967686"
       x2="38.976662"
       y2="8.0928917"
       id="linearGradient3187"
       xlink:href="#linearGradient4215"
       gradientUnits="userSpaceOnUse"
       gradientTransform="matrix(0.80392158,0,0,0.80392158,-1.72549,-2.3658945)" />
    <linearGradient
       id="linearGradient4215">
      <stop
         id="stop4217"
         style="stop-color:#dcdcdc;stop-opacity:1"
         offset="0" />
      <stop
         id="stop4219"
         style="stop-color:#f0f0f0;stop-opacity:1"
         offset="1" />
    </linearGradient>
    <linearGradient
       x1="21.346498"
       y1="59.968513"
       x2="21.346498"
       y2="7.8025136"
       id="linearGradient3189"
       xlink:href="#linearGradient4223"
       gradientUnits="userSpaceOnUse"
       gradientTransform="matrix(0.80392158,0,0,0.80392158,-1.72549,-2.3658945)" />
    <linearGradient
       id="linearGradient4223">
      <stop
         id="stop4225"
         style="stop-color:#505050;stop-opacity:1"
         offset="0" />
      <stop
         id="stop4227"
         style="stop-color:#838383;stop-opacity:1"
         offset="1" />
    </linearGradient>
    <linearGradient
       id="linearGradient8838">
      <stop
         id="stop8840"
         style="stop-color:#000000;stop-opacity:1"
         offset="0" />
      <stop
         id="stop8842"
         style="stop-color:#000000;stop-opacity:0"
         offset="1" />
    </linearGradient>
    <radialGradient
       cx="62.625"
       cy="4.625"
       r="10.625"
       fx="62.625"
       fy="4.625"
       id="radialGradient4100"
       xlink:href="#linearGradient8838"
       gradientUnits="userSpaceOnUse"
       gradientTransform="matrix(2.1647059,0,0,0.7529402,-111.56471,36.517647)" />
  </defs>
  <metadata
     id="metadata4107">
    <rdf:RDF>
      <cc:Work
         rdf:about="">
        <dc:format>image/svg+xml</dc:format>
        <dc:type
           rdf:resource="http://purl.org/dc/dcmitype/StillImage" />
        <dc:title />
      </cc:Work>
    </rdf:RDF>
  </metadata>
  <g
     id="layer1">
    <path
       d="m 46.999997,40 c 0,4.418278 -10.297452,8 -23,8 -12.702548,0 -23.0000002,-3.581722 -23.0000002,-8 0,-4.418278 10.2974522,-8 23.0000002,-8 12.702548,0 23,3.581722 23,8 l 0,0 z"
       id="path8836"
       style="opacity:0.3;fill:url(#radialGradient4100);fill-opacity:1;fill-rule:evenodd;stroke:none;stroke-width:0.99999988;marker:none;visibility:visible;display:inline;overflow:visible" />
    <path
       d="M 24.000002,4.467439 C 12.688809,4.467439 3.5,13.656244 3.5,24.967438 3.5,36.278631 12.688809,45.467442 24.000002,45.467439 35.311191,45.467439 44.50001,36.278631 44.5,24.967438 44.5,13.656244 35.311191,4.467439 24.000002,4.467439 z"
       id="path2555-7"
       style="color:#000000;fill:url(#linearGradient3187);fill-opacity:1;fill-rule:nonzero;stroke:url(#linearGradient3189);stroke-width:1;stroke-linecap:round;stroke-linejoin:round;stroke-miterlimit:4;stroke-opacity:1;stroke-dasharray:none;stroke-dashoffset:0;marker:none;visibility:visible;display:inline;overflow:visible;enable-background:accumulate" />
    <path
       d="m 24,4.8693997 c -3.118895,0 -6.08194,0.7136138 -8.717524,1.9846814 L 22.819241,22.832022 9.655025,10.873689 c -3.564495,3.627839 -5.753064,8.613134 -5.753064,14.09375 0,1.449125 0.159996,2.857988 0.452206,4.220588 l 19.846814,-5.125 -0.326593,-0.276347 12.8125,-14.3952214 C 33.225997,6.5698112 28.807422,4.8693997 24,4.8693997 z m 19.369486,14.7218143 -19.746324,4.723039 0.07537,0.05025 -17.158702,10.55147 c 3.463127,6.061591 9.987434,10.149513 17.460172,10.14951 0.566364,0 1.128626,-0.02929 1.683211,-0.07537 C 24.960804,36.713608 23.899145,24.767158 23.87439,24.490112 l 15.952819,12.837623 c 2.67004,-3.411917 4.270835,-7.697849 4.270831,-12.360296 0,-1.860266 -0.254241,-3.665773 -0.728554,-5.376226 z"
       id="path4004"
       style="fill:#000000;fill-opacity:0.04255317;stroke:none" />
    <path
       d="m 24,4.8693997 c -2.41747,0 -4.73565,0.4465389 -6.883578,1.2310049 l 5.702819,16.7316174 -14.646447,-10.25 c -2.677277,3.414377 -4.270833,7.71598 -4.270833,12.385417 0,0.961792 0.06997,1.91288 0.20098,2.838848 L 24.200981,24.063027 23.874388,23.78668 35.053922,8.2106988 C 31.879612,6.1114915 28.085669,4.8693997 24,4.8693997 z m 19.721202,16.2542893 -20.09804,3.190564 0.07537,0.05025 -15.802084,12.61152 c 3.667088,4.901652 9.51922,8.089463 16.103554,8.089461 0.160499,0 0.317724,0.0038 0.477329,0 -0.239413,-8.345725 -0.57829,-20.299487 -0.602941,-20.575367 l 16.681373,11.83272 c 2.224278,-3.234158 3.542282,-7.138588 3.542279,-11.355392 0,-1.315764 -0.134764,-2.598145 -0.376838,-3.84375 z"
       id="path4004-0"
       style="fill:#000000;fill-opacity:0.04787233;stroke:none" />
    <path
       d="m 24,4.8693997 c -1.824171,0 -3.595008,0.2467356 -5.275735,0.7034314 L 23.79902,24.012782 33.270221,7.1555517 C 30.494231,5.7066736 27.344616,4.8693997 24,4.8693997 z M 6.891544,14.415969 c -1.895076,3.066037 -2.989583,6.686737 -2.989583,10.55147 0,0.464861 0.01909,0.924702 0.05024,1.381741 L 23.899505,24.138394 6.891539,14.415968 z m 37.080883,8.265318 -20.047794,1.205882 17.309436,11.43076 c 1.819042,-3.022095 2.863974,-6.570489 2.863971,-10.35049 0,-0.770927 -0.04086,-1.537665 -0.125613,-2.286152 z M 24.025123,24.037904 9.80576,39.211924 c 3.502913,3.490595 8.300067,5.671102 13.591299,5.828432 l 0.628064,-21.002452 z"
       id="path3893-7"
       style="fill:#000000;fill-opacity:0.05851063;stroke:none" />
    <path
       d="m 24,4.8693997 c -1.101435,0 -2.187215,0.080272 -3.240808,0.2512255 L 23.79902,24.012782 31.28554,6.2511399 C 29.024748,5.3691931 26.570742,4.8693997 24,4.8693997 z M 5.96201,16.09918 C 4.689841,18.680807 3.951158,21.582948 3.901961,24.640845 L 23.89951,24.138394 5.96201,16.099179 z m 17.962623,7.78799 17.987745,10.199754 c 1.39696,-2.736659 2.185664,-5.839494 2.185662,-9.119485 0,-0.278966 -0.01383,-0.552823 -0.02512,-0.829045 L 23.924633,23.88717 z m 0.10049,0.150735 -11.63174,17.309436 c 2.827281,2.009263 6.177341,3.321867 9.822916,3.64277 l 1.808824,-20.952207 z"
       id="path3893-7-5"
       style="fill:#000000;fill-opacity:0.06382979;stroke:none" />
    <path
       d="m 24,4.8693997 c -0.506897,0 -1.009812,0.013262 -1.507353,0.050245 L 23.79902,24.012782 28.873775,5.4723408 C 27.313245,5.0828451 25.680154,4.8693997 24,4.8693997 z M 5.183211,17.933126 c -0.593003,1.58397 -1.005516,3.255672 -1.18076,4.999387 L 23.89951,24.138394 5.183211,17.933125 z m 18.741422,5.954044 18.615809,8.843136 c 0.889902,-2.118501 1.421901,-4.420743 1.532475,-6.833332 L 23.924633,23.88717 z m 0.10049,0.150735 -8.76777,19.017769 c 1.7353,0.84055 3.608643,1.446741 5.577206,1.758579 l 3.190564,-20.776349 z"
       id="path3893"
       style="fill:#000000;fill-opacity:0.10106381;stroke:none" />
    <path
       d="M 24.125613,4.8693997 23.79902,24.012782 26.838848,5.0703801 C 25.953543,4.9451231 25.043847,4.8750816 24.125613,4.8693997 z M 4.705882,19.339988 c -0.226683,0.777668 -0.420723,1.573293 -0.552696,2.386643 l 19.746324,2.411763 z m 19.218751,4.547182 19.143382,7.386029 c 0.364611,-1.102113 0.659543,-2.239713 0.829045,-3.416667 z m 0.10049,0.150735 -7.436275,19.595588 c 0.450412,0.179905 0.916081,0.354653 1.381741,0.502451 0.41196,0.129565 0.833252,0.248478 1.256127,0.351717 0.109083,0.02683 0.216822,0.05036 0.326593,0.07537 z"
       id="path3893-9"
       style="fill:#000000;fill-opacity:0.0851064;stroke:none" />
    <path
       d="M 43.5,24.99931 C 43.5,35.76921 34.76891,44.5 24.000247,44.5 13.230597,44.5 4.5,35.769112 4.5,24.999311 4.5,14.229908 13.230597,5.5000021 24.000247,5.5000021 34.76891,5.5000021 43.5,14.229908 43.5,24.999311 l 0,0 z"
       id="path8655-6"
       style="opacity:0.8;color:#000000;fill:none;stroke:url(#linearGradient3178);stroke-width:1;stroke-linecap:round;stroke-linejoin:round;stroke-miterlimit:4;stroke-opacity:1;stroke-dasharray:none;stroke-dashoffset:0;marker:none;visibility:visible;display:inline;overflow:visible;enable-background:accumulate" />
    <path
       d="m 17.625,14.875 c -0.31487,0 -0.608048,0.12382 -0.875,0.25 L 16.125,15.5 c -3.067692,2.02341 -5.22986,5.15026 -5.875,8.8125 -6.88e-4,0.004 -0.06182,-0.0038 -0.0625,0 -0.017,0.10086 0.0148,0.210824 0,0.3125 C 10.0949,25.242666 10,25.854142 10,26.5 10,33.955844 16.268014,40 24,40 31.731986,40 38,33.955844 38,26.5 38,25.926482 37.94824,25.367634 37.875,24.8125 37.85188,24.63986 37.78,24.482764 37.75,24.3125 37.10486,20.65026 34.942692,17.52341 31.875,15.5 L 31.25,15.125 c -0.266952,-0.12618 -0.56013,-0.25 -0.875,-0.25 -1.138892,0 -2.0625,0.923608 -2.0625,2.0625 0,0.648164 0.344864,1.246962 0.8125,1.625 0.14862,0.12016 0.321496,0.237 0.5,0.3125 1.932542,1.285956 3.364682,3.208196 4,5.4375 0.012,0.04254 0.0509,0.08236 0.0625,0.125 0.207862,0.763616 0.3125,1.546374 0.3125,2.375 0,5.325604 -4.477152,9.625 -10,9.625 -5.522848,0 -10,-4.299396 -10,-9.625 0,-0.828626 0.10464,-1.611384 0.3125,-2.375 0.012,-0.04446 0.0499,-0.0808 0.0625,-0.125 0.635318,-2.229304 2.067458,-4.151544 4,-5.4375 0.1785,-0.0755 0.35137,-0.19234 0.5,-0.3125 0.467636,-0.378038 0.8125,-0.976836 0.8125,-1.625 0,-1.138892 -0.923608,-2.0625 -2.0625,-2.0625 z M 24,10 c 1.108,0 2,0.892 2,2 l 0,12 c 0,1.108 -0.892,2 -2,2 -1.108,0 -2,-0.892 -2,-2 l 0,-12 c 0,-1.108 0.892,-2 2,-2 z"
       id="path3782-2"
       style="opacity:0.5;color:#000000;fill:#ffffff;fill-opacity:1;fill-rule:nonzero;stroke:none;stroke-width:1;marker:none;visibility:visible;display:inline;overflow:visible;enable-background:accumulate" />
    <path
       d="m 17.625,13.875 c -0.31487,0 -0.608048,0.12382 -0.875,0.25 L 16.125,14.5 c -3.067692,2.02341 -5.22986,5.15026 -5.875,8.8125 -6.88e-4,0.004 -0.06182,-0.0038 -0.0625,0 -0.017,0.10086 0.0148,0.210824 0,0.3125 C 10.0949,24.242666 10,24.854142 10,25.5 10,32.955844 16.268014,39 24,39 31.731986,39 38,32.955844 38,25.5 38,24.926482 37.94824,24.367634 37.875,23.8125 37.85188,23.63986 37.78,23.482764 37.75,23.3125 37.10486,19.65026 34.942692,16.52341 31.875,14.5 L 31.25,14.125 c -0.266952,-0.12618 -0.56013,-0.25 -0.875,-0.25 -1.138892,0 -2.0625,0.923608 -2.0625,2.0625 0,0.648164 0.344864,1.246962 0.8125,1.625 0.14862,0.12016 0.321496,0.237 0.5,0.3125 1.932542,1.285956 3.364682,3.208196 4,5.4375 0.012,0.04254 0.0509,0.08236 0.0625,0.125 0.207862,0.763616 0.3125,1.546374 0.3125,2.375 0,5.325604 -4.477152,9.625 -10,9.625 -5.522848,0 -10,-4.299396 -10,-9.625 0,-0.828626 0.10464,-1.611384 0.3125,-2.375 0.012,-0.04446 0.0499,-0.0808 0.0625,-0.125 0.635318,-2.229304 2.067458,-4.151544 4,-5.4375 0.1785,-0.0755 0.35137,-0.19234 0.5,-0.3125 0.467636,-0.378038 0.8125,-0.976836 0.8125,-1.625 0,-1.138892 -0.923608,-2.0625 -2.0625,-2.0625 z M 24,9.0000002 c 1.108,0 2,0.892 2,1.9999998 l 0,12 c 0,1.108 -0.892,2 -2,2 -1.108,0 -2,-0.892 -2,-2 l 0,-12 c 0,-1.1079998 0.892,-1.9999998 2,-1.9999998 z"
       id="path3782"
       style="opacity:0.65;color:#000000;fill:#000000;fill-opacity:1;fill-rule:nonzero;stroke:none;stroke-width:1px;marker:none;visibility:visible;display:inline;overflow:visible;enable-background:accumulate" />
  </g>
</svg>

<svg xmlns="http://www.w3.org/2000/svg" xmlns:xlink="http://www.w3.org/1999/xlink" viewBox="0 0 48 48"><defs><linearGradient x1="71.204" y1="6.238" x2="71.204" y2="44.341" id="h" xlink:href="#a" gradientUnits="userSpaceOnUse" gradientTransform="translate(-51.61 -1.728) scale(1.05405)"/><linearGradient id="a"><stop offset="0" stop-color="#fff"/><stop offset=".508" stop-color="#fff" stop-opacity=".235"/><stop offset=".835" stop-color="#fff" stop-opacity=".157"/><stop offset="1" stop-color="#fff" stop-opacity=".392"/></linearGradient><linearGradient x1="38.977" y1="59.968" x2="38.977" y2="8.093" id="f" xlink:href="#b" gradientUnits="userSpaceOnUse" gradientTransform="translate(-1.725 -2.366) scale(.80392)"/><linearGradient id="b"><stop offset="0" stop-color="#dcdcdc"/><stop offset="1" stop-color="#f0f0f0"/></linearGradient><linearGradient x1="21.346" y1="59.969" x2="21.346" y2="7.803" id="g" xlink:href="#c" gradientUnits="userSpaceOnUse" gradientTransform="translate(-1.725 -2.366) scale(.80392)"/><linearGradient id="c"><stop offset="0" stop-color="#505050"/><stop offset="1" stop-color="#838383"/></linearGradient><linearGradient id="d"><stop offset="0"/><stop offset="1" stop-opacity="0"/></linearGradient><radialGradient cx="62.625" cy="4.625" r="10.625" fx="62.625" fy="4.625" id="e" xlink:href="#d" gradientUnits="userSpaceOnUse" gradientTransform="matrix(2.1647 0 0 .75294 -111.565 36.518)"/></defs><path d="M47 40c0 4.418-10.297 8-23 8S1 44.418 1 40s10.297-8 23-8 23 3.582 23 8z" opacity=".3" fill="url(#e)" fill-rule="evenodd" overflow="visible"/><path d="M24 4.467c-11.31 0-20.5 9.19-20.5 20.5 0 11.312 9.19 20.5 20.5 20.5s20.5-9.188 20.5-20.5c0-11.31-9.19-20.5-20.5-20.5z" color="#000" fill="url(#f)" stroke="url(#g)" stroke-linecap="round" stroke-linejoin="round" overflow="visible"/><path d="M24 4.87c-3.12 0-6.082.713-8.718 1.984l7.537 15.978L9.65 10.874A20.053 20.053 0 0 0 3.9 24.967c0 1.45.16 2.858.453 4.22L24.2 24.064l-.326-.276L36.687 9.39A20.02 20.02 0 0 0 24 4.87zm19.37 14.72l-19.747 4.724.076.05L6.54 34.917c3.463 6.062 9.987 10.15 17.46 10.15.566 0 1.13-.03 1.683-.076a12861.08 12861.08 0 0 0-1.81-20.5l15.954 12.84a19.986 19.986 0 0 0 4.27-12.36c0-1.86-.253-3.662-.728-5.373z" fill-opacity=".043"/><path d="M24 4.87a20.05 20.05 0 0 0-6.884 1.23l5.703 16.732-14.65-10.25A20.004 20.004 0 0 0 3.9 24.967c0 .962.07 1.913.2 2.84l20.1-3.745-.326-.276L35.054 8.21A19.976 19.976 0 0 0 24 4.87zm19.72 16.254l-20.097 3.19.076.05L7.89 36.977c3.668 4.902 9.52 8.09 16.104 8.09.16 0 .317.003.476 0-.24-8.346-.578-20.3-.603-20.576L40.55 36.33a19.97 19.97 0 0 0 3.542-11.356c0-1.315-.135-2.6-.377-3.843z" fill-opacity=".048"/><path d="M24 4.87c-1.824 0-3.595.246-5.276.703l5.075 18.44 9.47-16.857A19.98 19.98 0 0 0 24 4.87zM6.892 14.415a20.02 20.02 0 0 0-2.94 11.933l19.948-2.21-17.008-9.722zm37.08 8.265l-20.047 1.207 17.31 11.43a20.023 20.023 0 0 0 2.863-10.35c0-.77-.04-1.537-.126-2.286zm-19.947 1.36L9.805 39.212c3.504 3.49 8.3 5.67 13.592 5.828l.628-21.002z" fill-opacity=".059"/><path d="M24 4.87c-1.1 0-2.187.08-3.24.25l3.04 18.893L31.285 6.25A20 20 0 0 0 24 4.87zM5.962 16.1a20.027 20.027 0 0 0-2.06 8.54l19.998-.5L5.962 16.1zm17.963 7.787l17.987 10.2a20.012 20.012 0 0 0 2.186-9.12c0-.28-.014-.552-.025-.83l-20.148-.25zm.1.15l-11.632 17.31c2.828 2.01 6.178 3.322 9.823 3.643l1.81-20.952z" fill-opacity=".064"/><path d="M24 4.87c-.507 0-1.01.013-1.507.05L23.8 24.013l5.074-18.54A20.11 20.11 0 0 0 24 4.868zM5.183 17.932a19.924 19.924 0 0 0-1.18 5L23.9 24.138 5.183 17.933zm18.742 5.954L42.54 32.73a19.973 19.973 0 0 0 1.533-6.833l-20.148-2.01zm.1.15l-8.768 19.02a19.99 19.99 0 0 0 5.578 1.757l3.19-20.776z" fill-opacity=".101"/><path d="M24.126 4.87L23.8 24.012 26.84 5.07a20.3 20.3 0 0 0-2.714-.2zM4.706 19.34a19.96 19.96 0 0 0-.553 2.387l19.747 2.41zm19.22 4.547l19.142 7.386c.365-1.102.66-2.24.83-3.416zm.1.15L16.59 43.633c.45.18.914.355 1.38.503.412.13.833.248 1.256.352l.326.075z" fill-opacity=".085"/><path d="M43.5 25c0 10.77-8.73 19.5-19.5 19.5S4.5 35.77 4.5 25 13.23 5.5 24 5.5 43.5 14.23 43.5 25z" opacity=".8" color="#000" fill="none" stroke="url(#h)" stroke-linecap="round" stroke-linejoin="round" overflow="visible"/><path d="M17.625 14.875c-.315 0-.608.124-.875.25l-.625.375c-3.068 2.023-5.23 5.15-5.875 8.813 0 .004-.062-.004-.063 0-.016.1.015.21 0 .312-.092.618-.187 1.23-.187 1.875C10 33.956 16.268 40 24 40s14-6.044 14-13.5c0-.574-.052-1.132-.125-1.688-.023-.172-.095-.33-.125-.5-.645-3.662-2.807-6.79-5.875-8.812l-.625-.375c-.267-.126-.56-.25-.875-.25-1.14 0-2.063.924-2.063 2.063 0 .648.345 1.246.813 1.625.15.12.32.237.5.312 1.933 1.286 3.365 3.208 4 5.438.012.042.05.082.063.125.207.763.312 1.546.312 2.375 0 5.325-4.477 9.625-10 9.625s-10-4.3-10-9.626c0-.828.105-1.61.313-2.375.01-.044.05-.08.062-.125.635-2.23 2.067-4.15 4-5.437.178-.075.35-.192.5-.313.468-.378.813-.976.813-1.625a2.063 2.063 0 0 0-2.063-2.062zM24 10c1.108 0 2 .892 2 2v12c0 1.108-.892 2-2 2s-2-.892-2-2V12c0-1.108.892-2 2-2z" opacity=".5" color="#000" fill="#fff" overflow="visible"/><path d="M17.625 13.875c-.315 0-.608.124-.875.25l-.625.375c-3.068 2.023-5.23 5.15-5.875 8.813 0 .004-.062-.004-.063 0-.016.1.015.21 0 .312-.092.618-.187 1.23-.187 1.875C10 32.956 16.268 39 24 39s14-6.044 14-13.5c0-.574-.052-1.132-.125-1.688-.023-.172-.095-.33-.125-.5-.645-3.662-2.807-6.79-5.875-8.812l-.625-.375c-.267-.126-.56-.25-.875-.25-1.14 0-2.063.924-2.063 2.063 0 .648.345 1.246.813 1.624.15.12.32.237.5.313 1.933 1.286 3.365 3.208 4 5.438.012.042.05.082.063.125.207.763.312 1.546.312 2.375 0 5.325-4.477 9.625-10 9.625s-10-4.3-10-9.626c0-.828.105-1.61.313-2.375.01-.044.05-.08.062-.125.635-2.23 2.067-4.15 4-5.437.178-.075.35-.192.5-.313.468-.378.813-.976.813-1.625a2.063 2.063 0 0 0-2.063-2.062zM24 9c1.108 0 2 .892 2 2v12c0 1.108-.892 2-2 2s-2-.892-2-2V11c0-1.108.892-2 2-2z" opacity=".65" color="#000" overflow="visible"/></svg>
